X: 2063
T: Âsûde Fikrim Âvârelendi
C: Salih Hayri Efendi
O: Turkey
F: http://compmusic.upf.edu/node/140
N: rast--sarki--turkaksagi--asude_fikrim--hafiz_yusuf_efendi
N: makam= rast
N: form= sarki
N: usul= turkaksagi = 5/8
M: 5/8
L: 1/16
K: C _1/4B ^f  
Q: 1/4=180
%%MIDI tuningsystem comma53
G4 B2A2 G2 | A2 B2c2 B2A2  | B2c2 d4 e2 | \
w:  ARANAĞME  |   |   | 
dc Bcd4z2  | d4 g2=f2 e2 | 
w:   |   | 
d2 e2dc BAG2  | A2B2 c2B2 A2 | AG GFG4z2  | \
w:   |   |   | 
G4 B2A2 G2 | 
w:  ARANAĞME  | 
A2 B2c2 B2A2  | B2c2 d4 e2 | dc Bcd4z2  | \
w:   |   |   | 
d4 g2=f2 e2 | d2 e2dc BAG2  | 
w:   |   | 
A2B2 c2B2 A2 | AG GFG4z2  | G4 B4 d2 | dc B^AB4z2  | \
w:   |   |  Â sû de   |  fik *  *  *  rim   | 
d2^cB c2d2 e=f | 
w:  â *  *  vâ *  re  | 
ed d^cd4z2  | d4 g2=f2 e2 | d3edc B^AB2  | \
w:  len *  *  *  di    |  Câ nân  *  e  |  lin *  den   | 
c3d e4 de | 
w:  dil  *  yâ re  | 
dc B^AB4z2  | G3A B2c2 e2 | d2 c2B2 A2G2  | \
w:  len *  *  *  di    |  Câ *  nân  *  e  |  lin *  den   | 
A4 B4 AB | AG GFG6  | 
w:  dil  yâ re  |  len *  *  *  di    | 
a3g f4 g2 | f_3/4e edd4z2  | d_3/4edc defg a_b | \
w:  Derd_ *  ü  e  |  lem *  *  *  den   |  bî *  *  *  çâ *  *  *  re  | 
ag gfg4z2  | 
w:  len *  *  *  di    | 
a3g f4 g2 | f_3/4e edd4z2  | d_e2d a2g2 {a}gf | \
w:  Derd_ *  ü  e  |  lem *  *  *  den   |  bî *  *  çâ *  re re  | 
f_3/4e edd6  | 
w:  len *  *  *  di    | 
d4 g2=f2 e2 | d3edc B^AB2  | c3d e4 de | \
w:  Câ nân  *  e  |  lin *  den   |  dil  *  yâ re  | 
dc B^AB4z2  | 
w:  len *  *  *  di    | 
G3A B2c2 e2 | d2 c2B2 A2G2  | A4 B4 AB | \
w:  Câ *  nân  *  e  |  lin *  den   |  dil  yâ re  | 
AG GFG6  | |


